X:27
T:\"Ostra Ryd
R:sl\"angpolska
H:efter Anders Larsson, Backa
A:Sm{\aa}land
Z:id:hn-sp-27
M:3/4
L:1/16
K:Am ^f
A3B cBAG E4|c2ec d2f2 e4|efed cdcB A2AB|{cd}cBAG A4 E4|
A3B cBAG E4|c2ec d2f2 e4|efed cdcB A2AB|{cd}cBAG A4 A4:|
|:e3f g2ga g2fe|gfed d2cB c4|cdef g2ga g2fe|gfe^d d2e2 e4|
c2ec B2eB A2eA|Acec B2cB A4|e2e2 gfed c2B2|B/c/BAG A4 A4:|
<end>
<start>
